static/assets/template/assets/img/icons/essential/detailed/Pay_With_Card_1_.svg

<svg height="149" viewBox="0 0 129 149" width="129" xmlns="http://www.w3.org/2000/svg"><g fill="none" fill-rule="evenodd" transform="translate(1 2)"><path d="m121.5 25.2h-94.1c-2.4 0-4.3-1.9-4.3-4.3v-16.6c0-2.4 1.9-4.3 4.3-4.3h94.1c2.4 0 4.3 1.9 4.3 4.3v16.6c.1 2.4-1.9 4.3-4.3 4.3z" fill-rule="nonzero"/><path d="m121.5 25.2h-88.6c-2.4 0-4.3-1.9-4.3-4.3v-12.8c0-2.4 1.9-4.3 4.3-4.3h88.6c2.4 0 4.3 1.9 4.3 4.3v12.8c.1 2.4-1.9 4.3-4.3 4.3z" fill-rule="nonzero"/><path d="m36.4 25.2h-9c-2.4 0-4.3-1.9-4.3-4.3v-16.6c0-2.4 1.9-4.3 4.3-4.3h94.1c2.4 0 4.3 1.9 4.3 4.3v16.6c0 2.4-1.9 4.3-4.3 4.3h-9.1" stroke-linecap="round" stroke-linejoin="round" stroke-width="3"/><path d="m34.5 12.2h82.5" stroke-linecap="round" stroke-linejoin="round" stroke-width="3"/><g transform="translate(0 13)"><path d="m105.4 1.7v79.5c0 3.5-2.8 6.3-6.3 6.3h-50.3c-3.5 0-6.3-2.8-6.3-6.3v-79.5z" fill-rule="nonzero"/><path d="m105.4.8v76.4c0 3.5-2.8 6.3-6.3 6.3h-46.7c-3.5 0-6.3-2.8-6.3-6.3v-76.4z" fill-rule="nonzero"/><g stroke-linecap="round" stroke-linejoin="round" stroke-width="3"><path d="m72.5 87.4h26c3.7 0 6.8-3 6.8-6.8v-3.4-77.2"/><path d="m42.5 76.9v-76.9"/><path d="m86.2 67.7v-67.7"/><path d="m86.2 80.6v-3"/></g><path d="m42.5 25.4v29.5l-10 11.1c-1.8 2-2.9 4.6-3 7.3l-.5 9c-.1 1.3.8 2.5 2.1 2.9l10.6 3.1c1.5.5 3.2-.3 3.8-1.8l.1-.4 1.6-3.8 6.2-14.9c.4-1 .9-1.9 1.6-2.7 3.2-4.1 9-5.6 13.9-3.3 2 1 3.3 3 3.3 5.2 0 .6-.1 1.2-.3 1.8l-6.5 18.9-8.1 23.4c-1.3 3.8-3.5 7.1-6.5 9.8l-8.4 7.5-4.2 3.8c-.7.6-1.6 1-2.6 1-5.2-.1-23.3-.2-31.2-.2-2.1 0-3.8-1.7-3.8-3.8v-55.4c0-4.6 1.8-8.9 5.1-12.1z" fill-rule="nonzero"/><path d="m41.7 88.4c1.5.5 3.2-.3 3.8-1.8l.1-.4 1.6-3.8c.4-.3.8-.8 1-1.3l.1-.4 6.6-16c3.2-4.1 9-5.6 13.9-3.3 2 1 3.3 3 3.3 5.2 0 .6-.1 1.2-.3 1.8l-6.5 18.9-8.1 23.4c-1.3 3.8-3.5 7.1-6.5 9.8l-8.4 7.5c-.4.2-.9.2-1.3.2-5.2-.1-23.3-.2-31.2-.2-2.1 0-3.8-1.7-3.8-3.8v-55.2c0-4.6 1.8-8.9 5.1-12.1l31.3-30.7v28.7l-10 11.1c-1.8 2-2.9 4.6-3 7.3l-.5 9c-.1 1.3.8 2.5 2.1 2.9z" fill-rule="nonzero"/><path d="m1.5 131.4c-.5-.6-.8-1.5-.8-2.3v-6.6" stroke-linecap="round" stroke-linejoin="round" stroke-width="3"/><path d="m.6 108.4v-34.8c0-4.6 1.8-8.9 5.1-12.1l36.8-36v29.5l-10 11.1c-1.8 2-2.9 4.6-3 7.3l-.5 9c-.1 1.3.8 2.6 2.1 2.9l10.6 3.1c1.5.5 3.2-.3 3.8-1.8l.1-.4 7.8-18.8c2.5-6 9.6-8.8 15.5-6 2 1 3.3 3 3.3 5.2 0 .6-.1 1.2-.3 1.8l-6.5 18.9-8.1 23.4c-1.3 3.8-3.5 7.1-6.5 9.8l-12.6 11.4" stroke-linecap="round" stroke-linejoin="round" stroke-width="3"/><path d="m.6 114.3v-.5" stroke-linecap="round" stroke-linejoin="round" stroke-width="3"/></g></g></svg>

<?xml version="1.0" encoding="UTF-8"?>
<svg width="129px" height="149px" viewBox="0 0 129 149" version="1.1" xmlns="http://www.w3.org/2000/svg" xmlns:xlink="http://www.w3.org/1999/xlink">
    <!-- Generator: Sketch 51.2 (57519) - http://www.bohemiancoding.com/sketch -->
    <title>Pay_With_Card_1_</title>
    <desc>Created with Sketch.</desc>
    <defs></defs>
    <g id="Page-1" stroke="none" stroke-width="1" fill="none" fill-rule="evenodd">
        <g id="Pay_With_Card_1_" transform="translate(1.000000, 2.000000)">
            <path d="M121.5,25.2 L27.4,25.2 C25,25.2 23.1,23.3 23.1,20.9 L23.1,4.3 C23.1,1.9 25,-4.54747351e-13 27.4,-4.54747351e-13 L121.5,-4.54747351e-13 C123.9,-4.54747351e-13 125.8,1.9 125.8,4.3 L125.8,20.9 C125.9,23.3 123.9,25.2 121.5,25.2 Z" id="Shape" class="fill-neutral" fill-rule="nonzero"></path>
            <path d="M121.5,25.2 L32.9,25.2 C30.5,25.2 28.6,23.3 28.6,20.9 L28.6,8.1 C28.6,5.7 30.5,3.8 32.9,3.8 L121.5,3.8 C123.9,3.8 125.8,5.7 125.8,8.1 L125.8,20.9 C125.9,23.3 123.9,25.2 121.5,25.2 Z" id="Shape" class="fill-primary-100" fill-rule="nonzero"></path>
            <path d="M36.4,25.2 L27.4,25.2 C25,25.2 23.1,23.3 23.1,20.9 L23.1,4.3 C23.1,1.9 25,-4.54747351e-13 27.4,-4.54747351e-13 L121.5,-4.54747351e-13 C123.9,-4.54747351e-13 125.8,1.9 125.8,4.3 L125.8,20.9 C125.8,23.3 123.9,25.2 121.5,25.2 L112.4,25.2" id="Shape" class="stroke-primary" stroke-width="3" stroke-linecap="round" stroke-linejoin="round"></path>
            <path d="M34.5,12.2 L117,12.2" id="Shape" class="stroke-primary" stroke-width="3" stroke-linecap="round" stroke-linejoin="round"></path>
            <g id="Group" transform="translate(0.000000, 13.000000)">
                <path d="M105.4,1.7 L105.4,81.2 C105.4,84.7 102.6,87.5 99.1,87.5 L48.8,87.5 C45.3,87.5 42.5,84.7 42.5,81.2 L42.5,1.7 L105.4,1.7 Z" id="Shape" class="fill-neutral" fill-rule="nonzero"></path>
                <path d="M105.4,0.8 L105.4,77.2 C105.4,80.7 102.6,83.5 99.1,83.5 L52.4,83.5 C48.9,83.5 46.1,80.7 46.1,77.2 L46.1,0.8 L105.4,0.8 Z" id="Shape" class="fill-primary-300" fill-rule="nonzero"></path>
                <path d="M72.5,87.4 L98.5,87.4 C102.2,87.4 105.3,84.4 105.3,80.6 L105.3,77.2 L105.3,0" id="Shape" class="stroke-primary" stroke-width="3" stroke-linecap="round" stroke-linejoin="round"></path>
                <path d="M42.5,76.9 L42.5,0" id="Shape" class="stroke-primary" stroke-width="3" stroke-linecap="round" stroke-linejoin="round"></path>
                <path d="M86.2,67.7 L86.2,0" id="Shape" class="stroke-primary" stroke-width="3" stroke-linecap="round" stroke-linejoin="round"></path>
                <path d="M86.2,80.6 L86.2,77.6" id="Shape" class="stroke-primary" stroke-width="3" stroke-linecap="round" stroke-linejoin="round"></path>
                <path d="M42.5,25.4 L42.5,54.9 L32.5,66 C30.7,68 29.6,70.6 29.5,73.3 L29,82.3 C28.9,83.6 29.8,84.8 31.1,85.2 L41.7,88.3 C43.2,88.8 44.9,88 45.5,86.5 L45.6,86.1 L47.2,82.3 L53.4,67.4 C53.8,66.4 54.3,65.5 55,64.7 C58.2,60.6 64,59.1 68.9,61.4 C70.9,62.4 72.2,64.4 72.2,66.6 C72.2,67.2 72.1,67.8 71.9,68.4 L65.4,87.3 L57.3,110.7 C56,114.5 53.8,117.8 50.8,120.5 L42.4,128 L38.2,131.8 C37.5,132.4 36.6,132.8 35.6,132.8 C30.4,132.7 12.3,132.6 4.4,132.6 C2.3,132.6 0.6,130.9 0.6,128.8 L0.6,73.4 C0.6,68.8 2.4,64.5 5.7,61.3 L42.5,25.4 Z" id="Shape" class="fill-neutral" fill-rule="nonzero"></path>
                <path d="M41.7,88.4 C43.2,88.9 44.9,88.1 45.5,86.6 L45.6,86.2 L47.2,82.4 C47.6,82.1 48,81.6 48.2,81.1 L48.3,80.7 L54.9,64.7 C58.1,60.6 63.9,59.1 68.8,61.4 C70.8,62.4 72.1,64.4 72.1,66.6 C72.1,67.2 72,67.8 71.8,68.4 L65.3,87.3 L57.2,110.7 C55.9,114.5 53.7,117.8 50.7,120.5 L42.3,128 C41.9,128.2 41.4,128.2 41,128.2 C35.8,128.1 17.7,128 9.8,128 C7.7,128 6,126.3 6,124.2 L6,69 C6,64.4 7.8,60.1 11.1,56.9 L42.4,26.2 L42.4,54.9 L32.4,66 C30.6,68 29.5,70.6 29.4,73.3 L28.9,82.3 C28.8,83.6 29.7,84.8 31,85.2 L41.7,88.4 Z" id="Shape" class="fill-primary-100" fill-rule="nonzero"></path>
                <path d="M1.5,131.4 C1,130.8 0.7,129.9 0.7,129.1 L0.7,122.5" id="Shape" class="stroke-primary" stroke-width="3" stroke-linecap="round" stroke-linejoin="round"></path>
                <path d="M0.6,108.4 L0.6,73.6 C0.6,69 2.4,64.7 5.7,61.5 L42.5,25.5 L42.5,55 L32.5,66.1 C30.7,68.1 29.6,70.7 29.5,73.4 L29,82.4 C28.9,83.7 29.8,85 31.1,85.3 L41.7,88.4 C43.2,88.9 44.9,88.1 45.5,86.6 L45.6,86.2 L53.4,67.4 C55.9,61.4 63,58.6 68.9,61.4 C70.9,62.4 72.2,64.4 72.2,66.6 C72.2,67.2 72.1,67.8 71.9,68.4 L65.4,87.3 L57.3,110.7 C56,114.5 53.8,117.8 50.8,120.5 L38.2,131.9" id="Shape" class="stroke-primary" stroke-width="3" stroke-linecap="round" stroke-linejoin="round"></path>
                <path d="M0.6,114.3 L0.6,113.8" id="Shape" class="stroke-primary" stroke-width="3" stroke-linecap="round" stroke-linejoin="round"></path>
            </g>
        </g>
    </g>
</svg>
